X:1
T:[ID 3-45]
T:[ID 3-45]
T:Bezeichnung standardisiert: Musetto Musetto 28.
T:Urheber unbekannt Datum in der hier transkribierten schriftlichen Quelle: 1767
C:Urheber unbekannt
C:Datum in der hier transkribierten schriftlichen Quelle: 1767
%%score 1 2
L:1/8
M:2/4
K:D
V:1 treble nm="Primo"
V:2 treble nm="Secondo"
V:1
 a2 fa | e2 A2 | dd/f/ ee/g/ |{g} f3 a | bb ba/g/ | a/g/a/b/ ag/f/ | gg gf/e/ | f/e/f/g/ fA | %8
 d/e/f/g/ ag/f/ | b2 ag | a2 Ac | d4 :: a | Ta4 | a4 | a4 | a3 a/g/ | fAdf | e/d/e/f/ ea/g/ | %19
 fAdf | e3 a | baag | Tgf z f | gffe | Ted z A | d/e/f/g/ ag/f/ | b2 ag | a2 Ac | d4 :| %29
V:2
 !fermata!f2 df | c2 A2 | FF/D/ AA/F/ | d3 f | gg gf/e/ | f/e/f/g/ fa | bb ba/g/ | a/g/a/b/ aA | %8
 F/A/d/e/ fe/d/ | g2 fe | f2 AG | F4 :: a/g/ | fA df | e/d/e/f/ ea/g/ | fA df | e3 a | Ta4 | Ta4 | %19
 Ta4 | a3 f | gffe | ed z a | baag | gf z A | F/A/d/e/ fe/d/ | g2 fe | f2 AG | F4 :| %29

